X:115
L:1/8
Q:3/8=110
M:6/8
K:D
|:"^A""D" FDF FGA |"G" BGB Bcd |"D" f2 f"Bm" fed |"Em" ecA"A7" GFE |"D" FDF FGA | 
"G" BGB"G#dim" Bcd |"D" f2 f fed |"A7" edc"D" d3 :|"^B1 & B2""Bm" f3 fed |"A" e3 edc |"G" d3 dcB | 
"F#7" cdc c^AF |"Bm" f3 fed |"A" e3 edc |"G" Bcd"E7" def |"A" edc"Bm" B3 |"D" f3 fed |"A" e3 edc | 
"Bm" d3 dcB |"A" cdc"A7" AGE |"D" FDF FGA |"G" BGB"G#dim" Bcd |"D" f2 f fed |"A7" edc"D" d3 |]

